packages/ui-solid/icons/bin_24.svg

<svg width="24" height="24" viewBox="0 0 24 24" fill="none" xmlns="http://www.w3.org/2000/svg">
<path fill-rule="evenodd" clip-rule="evenodd" d="M11.8695 2.05607C11.9125 2.05612 11.9559 2.05617 11.9999 2.05617C12.0439 2.05617 12.0873 2.05612 12.1303 2.05607C12.7528 2.05538 13.2704 2.05481 13.7156 2.20236C14.5369 2.47453 15.1943 3.10449 15.4825 3.92202C15.5823 4.20497 15.6181 4.51697 15.6308 4.861H19.7146C20.2117 4.861 20.6146 5.26395 20.6146 5.761C20.6146 6.25806 20.2117 6.661 19.7146 6.661H4.28519C3.78814 6.661 3.38519 6.25806 3.38519 5.761C3.38519 5.26395 3.78814 4.861 4.28519 4.861H8.36896C8.38166 4.51697 8.41754 4.20497 8.5173 3.92202C8.80552 3.10449 9.46291 2.47453 10.2842 2.20236C10.7294 2.05481 11.247 2.05538 11.8695 2.05607ZM10.1713 4.861H13.8285C13.8206 4.66358 13.8069 4.58285 13.7849 4.52051C13.6871 4.24313 13.4575 4.01308 13.1494 3.91099C13.0188 3.8677 12.8245 3.85617 11.9999 3.85617C11.1753 3.85617 10.981 3.8677 10.8504 3.91099C10.5423 4.01308 10.3127 4.24312 10.2149 4.52051C10.1929 4.58285 10.1792 4.66358 10.1713 4.861ZM5.62115 7.67265C6.11444 7.6116 6.56383 7.96199 6.62488 8.45528L7.56166 16.0238C7.68835 17.0474 7.77547 17.7404 7.90125 18.264C8.02209 18.7671 8.15776 19.0159 8.32235 19.1905C8.41527 19.289 8.51897 19.3783 8.63193 19.4567C8.83619 19.5984 9.11726 19.7023 9.65633 19.7597C10.213 19.8189 10.9384 19.8201 11.9999 19.8201C13.0614 19.8201 13.7868 19.8189 14.3435 19.7597C14.8825 19.7023 15.1636 19.5984 15.3679 19.4567C15.4808 19.3783 15.5845 19.289 15.6774 19.1905C15.842 19.0159 15.9777 18.7671 16.0985 18.264C16.2243 17.7404 16.3114 17.0474 16.4381 16.0238L17.3749 8.45528C17.436 7.96199 17.8854 7.6116 18.3787 7.67265C18.8719 7.73371 19.2223 8.1831 19.1613 8.67639L18.2182 16.296C18.0994 17.2556 18.0011 18.0502 17.8488 18.6844C17.6888 19.3505 17.4491 19.9354 16.987 20.4254C16.8078 20.6154 16.609 20.7863 16.3941 20.9354C15.8432 21.3178 15.2257 21.4759 14.534 21.5496C13.8708 21.6202 13.0492 21.6201 12.0491 21.6201H11.9507C10.9506 21.6201 10.129 21.6202 9.4658 21.5496C8.7741 21.4759 8.1566 21.3178 7.60569 20.9354C7.39075 20.7863 7.192 20.6154 7.01283 20.4254C6.55074 19.9354 6.31101 19.3505 6.15103 18.6844C5.99869 18.0502 5.90036 17.2556 5.78162 16.296L4.83852 8.67639C4.77746 8.1831 5.12786 7.73371 5.62115 7.67265Z" fill="#007AFF"/>
</svg>

<svg xmlns="http://www.w3.org/2000/svg" width="24" height="24" fill="none"><path fill="currentColor" fill-rule="evenodd" d="M11.87 2.056h.26c.623 0 1.14-.001 1.586.146a2.8 2.8 0 0 1 1.767 1.72c.1.283.135.595.148.939h4.084a.9.9 0 1 1 0 1.8H4.285a.9.9 0 0 1 0-1.8H8.37c.013-.344.049-.656.148-.939a2.8 2.8 0 0 1 1.767-1.72c.445-.147.963-.147 1.585-.146m-1.7 2.805h3.658c-.008-.197-.022-.278-.044-.34a1 1 0 0 0-.636-.61c-.13-.043-.324-.055-1.15-.055-.824 0-1.018.012-1.149.055a1 1 0 0 0-.635.61c-.022.062-.036.143-.044.34M5.62 7.673a.9.9 0 0 1 1.004.782l.937 7.569c.126 1.023.213 1.716.34 2.24.12.503.256.752.42.927q.14.147.31.266c.204.141.485.245 1.024.303.557.059 1.282.06 2.344.06s1.787-.001 2.344-.06c.539-.058.82-.162 1.024-.303a2 2 0 0 0 .31-.267c.164-.174.3-.423.42-.926.126-.524.213-1.217.34-2.24l.937-7.569a.9.9 0 0 1 1.786.221l-.943 7.62c-.119.96-.217 1.754-.37 2.388-.16.666-.399 1.251-.861 1.741q-.27.286-.593.51c-.55.383-1.168.54-1.86.615-.663.07-1.485.07-2.485.07h-.098c-1 0-1.822 0-2.485-.07-.692-.074-1.31-.232-1.86-.615a3.8 3.8 0 0 1-.593-.51c-.462-.49-.702-1.075-.862-1.74-.152-.635-.25-1.43-.37-2.389l-.942-7.62a.9.9 0 0 1 .782-1.003" clip-rule="evenodd"/></svg>
